build/img/dark-star.svg

<svg width="362" height="362" viewBox="0 0 362 362" fill="none" xmlns="http://www.w3.org/2000/svg">
<g clip-path="url(#clip0)">
<g clip-path="url(#clip1)">
<path d="M363.45 362.934L363.45 -1.46971L-0.954346 -1.46973L-0.954362 362.934L363.45 362.934Z" fill="#3D3D3D"/>
<path d="M181.248 -1.46972C181.902 98.5042 101.382 180.078 1.40858 180.732C0.62094 180.742 -0.166709 180.742 -0.954354 180.732L-0.954346 -1.46973L181.248 -1.46972Z" fill="black"/>
<path d="M181.248 362.934C181.248 262.306 262.821 180.732 363.45 180.732L363.45 362.934L181.248 362.934Z" fill="black"/>
<path d="M363.45 180.732C260.961 180.732 181.248 101.019 181.248 -1.46973L363.45 -1.46972L363.45 180.732Z" fill="black"/>
<path d="M-0.954346 180.732C99.0195 180.078 180.593 260.598 181.248 360.572C181.257 361.359 181.257 362.147 181.248 362.934L-0.954354 362.934L-0.954346 180.732Z" fill="black"/>
</g>
</g>
<defs>
<clipPath id="clip0">
<rect width="362" height="362" fill="white"/>
</clipPath>
<clipPath id="clip1">
<rect width="364.404" height="364.404" fill="white" transform="translate(363.45 -1.46973) rotate(90)"/>
</clipPath>
</defs>
</svg>

<svg width="362" height="362" fill="none" xmlns="http://www.w3.org/2000/svg"><g clip-path="url(#clip0)"><g clip-path="url(#clip1)"><path d="M363.45 362.934V-1.47H-.954v364.404H363.45z" fill="#3D3D3D"/><path d="M181.248-1.47c.654 99.974-79.866 181.548-179.84 182.202-.787.01-1.575.01-2.362 0V-1.47h182.202zm0 364.404c0-100.628 81.573-182.202 182.202-182.202v182.202H181.248z" fill="#000"/><path d="M363.45 180.732c-102.489 0-182.202-79.713-182.202-182.202H363.45v182.202zm-364.404 0c99.974-.654 181.547 79.866 182.202 179.84.009.787.009 1.575 0 2.362H-.954V180.732z" fill="#000"/></g></g><defs><clipPath id="clip0"><path fill="#fff" d="M0 0h362v362H0z"/></clipPath><clipPath id="clip1"><path fill="#fff" transform="rotate(90 182.46 180.99)" d="M0 0h364.404v364.404H0z"/></clipPath></defs></svg>
